brandFactory_export/2.Regular/Ver _2Regular.svg

<?xml version="1.0" encoding="UTF-8"?>
<svg width="24px" height="24px" viewBox="0 0 24 24" version="1.1" xmlns="http://www.w3.org/2000/svg" xmlns:xlink="http://www.w3.org/1999/xlink">
    <title>2.Regular/Ver _2Regular</title>
    <g id="Symbols" stroke="none" stroke-width="1" fill="none" fill-rule="evenodd">
        <g id="2.Regular/Ver-_2Regular" fill="#5CB615" fill-rule="nonzero">
            <path d="M12.8453782,18.3411765 C17.1680672,18.3411765 21.605042,13.8571429 22.9361345,12.394958 C21.5983193,10.9327731 17.1344538,6.44201681 12.8151261,6.44201681 C8.49243697,6.44201681 4.03193277,10.9260504 2.69411765,12.3915966 C4.04201681,13.8537815 8.52605042,18.3411765 12.8453782,18.3411765 Z M24.4588235,11.9378151 C24.6773109,12.2 24.6773109,12.5831933 24.4588235,12.8453782 C24.2268908,13.1310924 18.6638655,19.7731092 12.8453782,19.7731092 C7.02689076,19.7731092 1.40336134,13.1310924 1.16806723,12.8487395 C0.946218487,12.5865546 0.946218487,12.2033613 1.16470588,11.9378151 C1.40336134,11.6554622 6.99327731,5.01008403 12.8151261,5.01008403 C18.6369748,5.01008403 24.2235294,11.6554622 24.4588235,11.9378151 Z M12.9361345,9.54789916 C13.5210084,9.56134454 15.7932773,9.78991597 15.7932773,12.492437 C15.7932773,15.2016807 13.5176471,15.4134454 12.9495798,15.4235294 C12.8588235,15.4268908 12.7680672,15.4268908 12.6773109,15.4268908 C12.0789916,15.4168067 9.83361345,15.205042 9.83361345,12.4756303 C9.83361345,9.74957983 12.0554622,9.54789916 12.6571429,9.54453782 C12.7478992,9.54453782 12.8521008,9.54453782 12.9361345,9.54789916 L12.9361345,9.54789916 Z" id="Ver-_2Regular"></path>
        </g>
    </g>
</svg>

<svg width="24" height="24" viewBox="0 0 24 24" xmlns="http://www.w3.org/2000/svg"><path d="M12.845 18.341c4.323 0 8.76-4.484 10.091-5.946-1.338-1.462-5.802-5.953-10.12-5.953-4.324 0-8.784 4.484-10.122 5.95 1.348 1.462 5.832 5.95 10.151 5.95zm11.614-6.403a.71.71 0 010 .907c-.232.286-5.795 6.928-11.614 6.928-5.818 0-11.442-6.642-11.677-6.924a.71.71 0 01-.003-.911c.238-.283 5.828-6.928 11.65-6.928s11.409 6.645 11.644 6.928zm-11.523-2.39c.585.013 2.857.242 2.857 2.944 0 2.71-2.275 2.921-2.843 2.932-.091.003-.182.003-.273.003-.598-.01-2.843-.222-2.843-2.951 0-2.726 2.221-2.928 2.823-2.931.09 0 .195 0 .28.003z" fill="#5CB615" fill-rule="nonzero"/></svg>
